X: 20772
T: The PRAGUE WALTZ
%R: waltz
B: W. Hamilton "Universal Tune-Book" Vol. 2 Glasgow 1846 p.77 #2
S: http://s3-eu-west-1.amazonaws.com/itma.dl.printmaterial/book_pdfs/hamiltonvol2web.pdf
Z: 2016 John Chambers <jc:trillian.mit.edu>
M: 3/8
L: 1/16
K: G
% - - - - - - - - - - - - - - - - - - - - - - - - -
(gb) |\
(agfedc) | B2B2 (Bd) | c2c2 ce | d4 (gb) |\
(agfedc) | B2B2 (Bd) | (dcecAF) | G4 :: B2 |\
c2(cBcA) | d2d2B2 | c2(cBcA) | d4 (gb) |
(agfedc) | B2B2 (Bd) | (dcecAF) | G4 H:: [K:=f] G2 |\
g4 e2 | f4 d2 | (fedcBc) | d2G2G2 |\
g4 e2 | f4 d2 | (fedcBd) "^D.C."c4 |]
% - - - - - - - - - - - - - - - - - - - - - - - - -

%%sep 1 1 500
%%sep 1 1 500

